X: 21913
T: Kitchen Criminal, The
R: reel
M: 4/4
K: Bminor
|:Bf (3fff gfeg|f2df edcd|Bf (3fff gfeg|a2eg fedc|
Bf (3fff gfeg|f2df edcd|ABBA B2Bf|edcd B4:|
|:B2dc- cdA2-|A2dd ed (3cBA|g2ef- fde2-|e2ed efed|
B2dc- cdA2-|A2dd ed (3cBA|g2eg f2df|Bdcd B4:|

